Adwaita++/actions/22/focus-legacy-systray.svg

<svg height="22" viewBox="0 0 22 22" width="22" xmlns="http://www.w3.org/2000/svg">
  <path d="m0 2.0097656v12.0000004h10v-10.0000004c0-2-2-2-2-2zm10 0s1 0 1 2v10.0000004h1v-10.0000004c0-2-2-2-2-2zm2 0s1 0 1 2v10.0000004h1v-10.0000004c0-2-2-2-2-2zm-9 3 4.5 3-4.5 3.0000004z" fill="#444" transform="translate(3 3)"/>
</svg>

<svg xmlns="http://www.w3.org/2000/svg" width="22" height="22" viewBox="0 0 22 22">
 <defs>
  <style id="current-color-scheme" type="text/css">
   .ColorScheme-Text { color:#444444; } .ColorScheme-Highlight { color:#4285f4; }
  </style>
 </defs>
 <path style="fill:currentColor" class="ColorScheme-Text" d="M 0 2.0097656 L 0 14.009766 L 10 14.009766 L 10 4.0097656 C 10 2.0097656 8 2.0097656 8 2.0097656 L 0 2.0097656 z M 10 2.0097656 C 10 2.0097656 11 2.0097656 11 4.0097656 L 11 14.009766 L 12 14.009766 L 12 4.0097656 C 12 2.0097656 10 2.0097656 10 2.0097656 z M 12 2.0097656 C 12 2.0097656 13 2.0097656 13 4.0097656 L 13 14.009766 L 14 14.009766 L 14 4.0097656 C 14 2.0097656 12 2.0097656 12 2.0097656 z M 3 5.0097656 L 7.5 8.0097656 L 3 11.009766 L 3 5.0097656 z" transform="translate(3 3)"/>
</svg>
